X:1
T:Title
%%score { ( 1 4 ) | ( 2 3 ) }
L:1/8
M:6/8
K:F
V:1 treble nm="Grand Piano"
V:4 treble 
V:2 bass 
V:3 bass 
V:1
 z3 z2[Q:1/4=100] F | F2 A A2 [Ac] | [Ac][GB][FA] [GB]2 [EG] | [CFA]2 [CAc] .[CGc]2 [CFA] | %4
 [CEG]3- [CEG]2 F | F2 A A2 c | cBA B2 [CGc] | [CFA]2 [DFB] [B,G]FE |[M:5/8] F-F- F3 |[M:1/8] c | %10
[M:3/4] c2- [Fc-][Gc-] [Fc][Ec] | [Fc]2 [_Ad] [=Ac]2 A | Gc e d2 [DF=B] | %13
 c-[Gc-] [Fc-] [Ec]2 [CGB] | [CFA]2 [CFA][FA] [GB][Ac] | [Ac]B [CFA] [CGB]2 [CGc] | %16
 [CFA]2 [DFB][B,G] FE |[M:5/8] F-F- F3 |] %18
V:2
 z3 z2 [F,A,C] | [F,A,C]2 [F,CF] [F,CF]2 [F,C] | [C,C]2 [C,C] [C,C]2 [C,C] | %3
 G,2 F, z[K:treble] B[K:bass]F, | C,3- C,2 [F,A,] | [F,A,C]2[K:treble] [F,CF] [F,CF]2 [A,CF] | %6
 .C3[K:bass] z3 | F,2 B,, z A,[C,G,C] |[M:5/8] [F,A,C]-[F,A,C]- [F,A,C]3 |[M:1/8] [F,F] | %10
[M:3/4] G,2 A,B, A,[C,G,] | [F,A,]2 [F,=B,] [F,C]2[K:treble] [F,CF] | %12
 [G,CE]2 [G,B,E] [G,=B,F]2[K:bass] G,, | z B, A, G,2 E, | F,2 F, [F,C]2 [F,C] | z G C, C,2 E, | %16
 F,2 .B,,2 A,[C,G,C] |[M:5/8] [F,A,C]-[F,A,C]- [F,A,C]3 |] %18
V:3
 x6 | x6 | x6 | z3 .E,3[K:treble][K:bass] | x6 | x2[K:treble] x4 | %6
 [A,F][G,E][K:bass][F,CF] [G,CE]2 E, | z3 .C,3 |[M:5/8] x5 |[M:1/8] x |[M:3/4] C,6 | %11
 x5[K:treble] x | x5[K:bass] x | C,6 | x6 | [C,C]2 z2 z2 | z2 z .C,3 |[M:5/8] x5 |] %18
V:4
 x6 | x6 | x6 | x6 | x6 | x6 | x6 | z3 .C3 |[M:5/8] x5 |[M:1/8] x |[M:3/4] E2 z2 z2 | x6 | x6 | %13
 .[CE]2 z2 z2 | x6 | x6 | z2 z .C3 |[M:5/8] x5 |] %18

